X:1
T:Title
%%score [ ( 1 2 ) ( 3 4 ) ]
L:1/8
Q:1/4=120
M:4/4
K:Ab
V:1 treble nm="Midi_74"
V:2 treble 
V:3 bass nm="Midi_74"
V:4 bass 
V:1
 c8 | A4 A4 | d8 || c8 | B4 F4 | G4 B4 | A8 |] %7
V:2
 A8 | F4 F4 | F8 || =E8 | F4 D4 | D4 D4 | C8 |] %7
V:3
 E8 | D4 C4 | B,8 || G,8 | F,4 B,4 | B,4 G,4 | A,8 |] %7
V:4
 A,,8 | D,4 F,4 | B,,8 || C,8 | D,4 D,4 | E,4 E,4 | A,,8 |] %7

